tools/download-figma-icons/icons/solid/security-camera.svg

<svg width="24" height="24" viewBox="0 0 24 24" fill="none" xmlns="http://www.w3.org/2000/svg">
<path fill-rule="evenodd" clip-rule="evenodd" d="M11.8496 12.735C11.5804 12.8468 11.2571 12.7193 11.1521 12.4418L11.1071 12.3518V12.3443L9.68216 8.84935L10.4171 8.56436C11.3546 8.18262 12.4196 8.9251 12.7946 9.83258C12.9446 10.2076 13.3796 10.3951 13.7621 10.2376L21.3302 7.20764L21.6894 8.15937C21.7569 8.31011 21.7569 8.47436 21.7119 8.61011C21.6752 8.69936 21.6069 8.8126 21.4644 8.8726L11.8496 12.735ZM8.64718 12.5318L7.43221 9.71256L8.27969 9.38931L9.43467 12.21L8.64718 12.5318ZM23.2494 11.2501C22.8369 11.2501 22.4994 11.5876 22.4994 12V14.25H18.7495L17.7977 11.955L22.0344 10.2593C22.5444 10.0576 22.9276 9.65259 23.1219 9.12685C23.2944 8.63186 23.2869 8.08513 23.0844 7.60439L22.7169 6.64516L23.5269 6.32191C23.9094 6.16442 24.0969 5.73767 23.9469 5.35443L22.5219 1.65701C21.9594 0.292035 20.3927 -0.360451 19.0345 0.202037L2.7148 6.80265C2.48231 6.90015 2.31731 7.1019 2.26481 7.34939C2.21231 7.59689 2.29481 7.85188 2.46731 8.03188L4.71726 10.2818C4.86051 10.4251 5.05475 10.5001 5.24975 10.5001C5.33975 10.5001 5.42975 10.4851 5.52049 10.4468L6.02973 10.2518L7.5597 13.8C7.6872 14.0768 7.95794 14.25 8.24969 14.25C8.33969 14.25 8.43719 14.235 8.52718 14.1968L10.0947 13.56C10.4854 14.0175 11.0546 14.28 11.6471 14.28C11.9021 14.28 12.1646 14.2268 12.4121 14.1225L15.712 12.7943L16.9578 15.8025C17.137 16.2217 17.542 16.5 17.9995 16.5H22.4994V18.7499C22.4994 19.1617 22.8369 19.4999 23.2494 19.4999C23.6619 19.4999 23.9994 19.1617 23.9994 18.7499V12C23.9994 11.5876 23.6619 11.2501 23.2494 11.2501ZM8.24983 18.7495C6.18212 18.7495 4.49991 17.0673 4.49991 14.9996C4.49991 14.5848 4.16467 14.2496 3.74992 14.2496C3.33518 14.2496 2.99994 14.5848 2.99994 14.9996C2.99994 17.8938 5.35564 20.2495 8.24983 20.2495C8.66457 20.2495 8.99982 19.9142 8.99982 19.4995C8.99982 19.0847 8.66457 18.7495 8.24983 18.7495ZM1.49997 14.9996C1.49997 18.7218 4.52766 21.7494 8.24983 21.7494C8.66457 21.7494 8.99982 22.0847 8.99982 22.4994C8.99982 22.9142 8.66457 23.2494 8.24983 23.2494C3.70117 23.2494 0 19.5482 0 14.9996C0 14.5848 0.335243 14.2496 0.749985 14.2496C1.16473 14.2496 1.49997 14.5848 1.49997 14.9996Z" fill="black"/>
</svg>

<svg width="24" height="24" viewBox="0 0 24 24" fill="none" xmlns="http://www.w3.org/2000/svg"><path fill-rule="evenodd" clip-rule="evenodd" d="M11.85 12.735a.53.53 0 0 1-.698-.293l-.045-.09v-.008L9.682 8.85l.735-.285c.938-.381 2.003.361 2.378 1.269a.74.74 0 0 0 .967.405l7.568-3.03.36.951a.632.632 0 0 1 .022.451.46.46 0 0 1-.248.263l-9.614 3.862Zm-3.203-.203-1.215-2.82.848-.323 1.155 2.821-.788.322ZM23.25 11.25a.752.752 0 0 0-.75.75v2.25h-3.75l-.951-2.295 4.236-1.696c.51-.201.894-.606 1.088-1.132a2.13 2.13 0 0 0-.038-1.523l-.367-.959.81-.323a.75.75 0 0 0 .42-.968l-1.425-3.697A2.674 2.674 0 0 0 19.035.202l-16.32 6.6a.757.757 0 0 0-.248 1.23l2.25 2.25a.754.754 0 0 0 .803.165l.51-.195L7.56 13.8c.127.277.398.45.69.45.09 0 .187-.015.277-.053l1.568-.637c.39.457.96.72 1.552.72.255 0 .518-.053.765-.157l3.3-1.329 1.246 3.008c.179.42.584.698 1.042.698h4.5v2.25c0 .412.337.75.75.75.412 0 .75-.338.75-.75V12a.752.752 0 0 0-.75-.75Zm-15 7.5A3.754 3.754 0 0 1 4.5 15 .75.75 0 1 0 3 15a5.257 5.257 0 0 0 5.25 5.25.75.75 0 1 0 0-1.5ZM1.5 15a6.757 6.757 0 0 0 6.75 6.75.75.75 0 1 1 0 1.5C3.7 23.25 0 19.547 0 15a.75.75 0 1 1 1.5 0Z" fill="currentColor"/></svg>
